X: 1
T: JACK'S ALIVE -- HORNPIPE
B: Ryan's Mammoth Collection of Fiddle Tunes
R: hornpipe
M: 2/4
L: 1/16
Z: Contributed 20000522200606 by John Chambers jchambers:casc.com
K: G
uD2 \
| vG2GB A2Ac | dBcA GFED | G2GB A2Ac | dBcA G2 :|
|: ud2 \
| gagf edeg | abaf gfed | gagf edeg | abaf g2 :|
